assets/svgs/symbols/alphanum/Alphanum31.svg

<svg id="emoji" viewBox="0 0 72 72" xmlns="http://www.w3.org/2000/svg">
  <g id="color">
    <path fill="#d0cfce" stroke="none" stroke-linejoin="round" stroke-miterlimit="10" stroke-width="2" d="M59.0349,60H12.9651 C12.4343,60,12,59.5657,12,59.0349V12.9651C12,12.4343,12.4343,12,12.9651,12h46.0698C59.5657,12,60,12.4343,60,12.9651v46.0698 C60,59.5657,59.5657,60,59.0349,60z"/>
  </g>
  <g id="hair"/>
  <g id="skin"/>
  <g id="skin-shadow"/>
  <g id="line">
    <path fill="none" stroke="#000000" stroke-linejoin="round" stroke-miterlimit="10" stroke-width="2" d="M59.0349,60H12.9651 C12.4343,60,12,59.5657,12,59.0349V12.9651C12,12.4343,12.4343,12,12.9651,12h46.0698C59.5657,12,60,12.4343,60,12.9651v46.0698 C60,59.5657,59.5657,60,59.0349,60z"/>
    <polyline fill="none" stroke="#000000" stroke-linecap="round" stroke-linejoin="round" stroke-miterlimit="10" stroke-width="2" points="33.6112,33.175 28.9827,22.375 24.3541,33.175"/>
    <line x1="25.8969" x2="32.0684" y1="30.589" y2="30.589" fill="none" stroke="#000000" stroke-linecap="round" stroke-linejoin="round" stroke-miterlimit="10" stroke-width="2"/>
    <path fill="none" stroke="#000000" stroke-linecap="round" stroke-linejoin="round" stroke-miterlimit="10" stroke-width="2" d="M32.1905,48.4044c-0.6809,0.6039-1.5768,0.9706-2.5585,0.9706l0,0c-2.1302,0-3.8571-1.7269-3.8571-3.8571v-3.0857v3.0857v-3.0857 c0-2.1302,1.7269-3.8571,3.8571-3.8571l0,0c0.9817,0,1.8777,0.3667,2.5585,0.9708"/>
    <path fill="none" stroke="#000000" stroke-linecap="round" stroke-linejoin="round" stroke-miterlimit="10" stroke-width="2" d="M44.8168,27.7749h-4.1182v-5.3798h4.1182c1.4856,0,2.69,1.2044,2.69,2.69l0,0C47.5067,26.5707,46.3024,27.7749,44.8168,27.7749z"/>
    <path fill="none" stroke="#000000" stroke-linecap="round" stroke-linejoin="round" stroke-miterlimit="10" stroke-width="2" d="M44.8168,33.1549h-4.1182v-5.3799h4.1182c1.4856,0,2.69,1.2044,2.69,2.69l0,0C47.5067,31.9505,46.3024,33.1549,44.8168,33.1549z"/>
    <path fill="none" stroke="#000000" stroke-linecap="round" stroke-linejoin="round" stroke-miterlimit="10" stroke-width="2" d="M45.4998,49.3549h-4.8739V38.5951h4.8739c1.1485,0,2.0796,0.9311,2.0796,2.0796v6.6005 C47.5794,48.4238,46.6483,49.3549,45.4998,49.3549z"/>
  </g>
</svg>

<svg xmlns="http://www.w3.org/2000/svg" viewBox="0 0 72 72"><path fill="#d0cfce" d="M59.035 60h-46.07a.968.968 0 01-.965-.965v-46.07c0-.53.434-.965.965-.965h46.07c.53 0 .965.434.965.965v46.07c0 .53-.434.965-.965.965z"/><g fill="none" stroke="#000" stroke-linejoin="round" stroke-miterlimit="10" stroke-width="2"><path d="M59.035 60h-46.07a.968.968 0 01-.965-.965v-46.07c0-.53.434-.965.965-.965h46.07c.53 0 .965.434.965.965v46.07c0 .53-.434.965-.965.965z"/><path stroke-linecap="round" d="M33.611 33.175l-4.628-10.8-4.629 10.8M25.897 30.589h6.171M32.19 48.404c-.68.604-1.576.971-2.558.971h0a3.857 3.857 0 01-3.857-3.857v-3.086 3.086-3.086a3.857 3.857 0 013.857-3.857h0c.982 0 1.878.367 2.558.97M44.817 27.775h-4.118v-5.38h4.118a2.69 2.69 0 012.69 2.69h0a2.69 2.69 0 01-2.69 2.69zM44.817 33.155h-4.118v-5.38h4.118a2.69 2.69 0 012.69 2.69h0a2.69 2.69 0 01-2.69 2.69zM45.5 49.355h-4.874v-10.76H45.5a2.08 2.08 0 012.08 2.08v6.6a2.08 2.08 0 01-2.08 2.08z"/></g></svg>
